X: 25
T:Trumpet Minuet. JaW.025
M:3/4
Q:1/4=120
S:James Winder Ms, Lancashire, 1835-41
R:Minuet
O:England
A:Wyresdale,Lancashire
H:1/8
Z:vmp.Chris Partington, Aug 2004
K:D
D2DDDD|F2FFFF|A2AAAA|d4e2|!
f2d2e2|f2d2e2|f2gfef|d6:|!
|:a2aaaa|a2bagf|g2gggg|g2agfe|!
f2ffff|f2g2a2|e2eeee|e6:|]
